X: 8468
T: Crake On The Run
R: jig
M: 6/8
K: Adorian
|:"Am"ABc e2 e|ABc e2 e|"D"d2 d cdc|BcB A2 G|
"Am"ABc e2 e|ABc e2 e|"D"d2 d cdc|BcB A3:|
|:"Am"E2 A AGA|BAB AGE|"D"A2 G FED|A2 G FED|
"Am"E2 A AGA|BAB AGE|"D"A2 G FED|FED "Am"E3:|
|:"C"c2 c cBc|dcB ABc|"D"d2 d dcd|edc BAG|
"Am"A2 A EGA|EGA BAG|A2 A EGA|BAG A3:|
|:"D"A2 A GAG|FGF E2 D|A2 A AGA|cAG AGE|
A2 A GAG|FGF E2 D|A2 A AGA|cAG A3:|

